X: 24814
T: Maggie Pickins
R: strathspey
M: 4/4
K: Gmajor
G>ED>E G>AB2|c>AB>G A>GE>F|G>ED>E G>AB>c|d>ed>B A2G2:|
d>eg>f e>dB2|d>ed>B A>GE2|d>eg>f e>dB>A|G>AB>G A2G2|
g>ag>f e>dB2|d>ed>B A>GE2|G>ED>E G>AB>c|d>ed>B A2G2|

